X: 1
T: Donegal Lasses
C: Brian Finnegan
R: jig
S: handwritten page in Concord Slow Scottish Session collection
Z: 2015 John Chambers <jc:trillian.mit.edu>
M: 6/8
L: 1/8
K: Amix
%%slurgraces
%%gracesslur
|:\
{G}Ace aed | cdB A3 | {F}GBd G3 | {G}FAd F3 |\
{G}Ace aed | cdB Afg | aed cdB | "*"{G}A6 :|
|:\
{F}GBd G3 | {G}FAd FAd | e2e e.c.A | dee ecA |\
{F}GBd G3 | {G}FAd Feg | aed cdB | "*"{G}A6 :|
"* Alternate bar 8:"y2| {G}A2 {G}A2 {G}A2-|
